flaticon/travel/luggage-1.svg

<svg xmlns="http://www.w3.org/2000/svg" width="32" height="32" viewBox="0 0 24 24">
    <path d="M11.375 18.851562L15.46875 20.578125 16.722656 17.601562 12.632812 15.875zM15.675781 18.027344L15.042969 19.527344 12.425781 18.421875 13.058594 16.921875zM13.398438 8.800781C13.398438 9.695312 13.925781 10.398438 14.601562 10.398438 15.273438 10.398438 15.800781 9.695312 15.800781 8.800781 15.800781 8.503906 15.738281 8.234375 15.636719 8L15.800781 8C16.019531 8 16.199219 7.820312 16.199219 7.601562 16.199219 7.378906 16.019531 7.199219 15.800781 7.199219L5.800781 7.199219C5.578125 7.199219 5.398438 7.378906 5.398438 7.601562 5.398438 7.820312 5.578125 8 5.800781 8L13.5625 8C13.460938 8.234375 13.398438 8.503906 13.398438 8.800781zM15 8.800781C15 9.289062 14.761719 9.601562 14.601562 9.601562 14.4375 9.601562 14.199219 9.289062 14.199219 8.800781 14.199219 8.3125 14.4375 8 14.601562 8 14.761719 8 15 8.3125 15 8.800781zM15 8.800781"/>
    <path d="M 19 11.601562 L 18.601562 11.601562 L 18.601562 6.742188 C 18.601562 5.671875 17.726562 4.800781 16.65625 4.800781 L 13 4.800781 L 13 2.398438 L 13.398438 2.398438 C 14.0625 2.398438 14.601562 1.863281 14.601562 1.199219 C 14.601562 0.539062 14.0625 0 13.398438 0 L 8.601562 0 C 7.9375 0 7.398438 0.539062 7.398438 1.199219 C 7.398438 1.863281 7.9375 2.398438 8.601562 2.398438 L 9 2.398438 L 9 4.800781 L 4.941406 4.800781 C 3.871094 4.800781 3 5.671875 3 6.742188 L 3 20.855469 C 3 21.664062 3.496094 22.359375 4.199219 22.652344 L 4.199219 22.925781 C 4.199219 23.519531 4.683594 24 5.273438 24 L 7.527344 24 C 8.117188 24 8.601562 23.519531 8.601562 22.925781 L 8.601562 22.800781 L 13 22.800781 L 13 22.925781 C 13 23.519531 13.480469 24 14.074219 24 L 16.324219 24 C 16.917969 24 17.398438 23.519531 17.398438 22.925781 L 17.398438 22.652344 C 18.101562 22.359375 18.601562 21.664062 18.601562 20.855469 L 18.601562 15.601562 L 19 15.601562 C 20.101562 15.601562 21 14.703125 21 13.601562 C 21 12.496094 20.101562 11.601562 19 11.601562 Z M 9.800781 1.601562 L 9.800781 0.800781 L 10.601562 0.800781 L 10.601562 1.601562 Z M 11.398438 0.800781 L 12.199219 0.800781 L 12.199219 1.601562 L 11.398438 1.601562 Z M 13.800781 1.199219 C 13.800781 1.421875 13.621094 1.601562 13.398438 1.601562 L 13 1.601562 L 13 0.800781 L 13.398438 0.800781 C 13.621094 0.800781 13.800781 0.980469 13.800781 1.199219 Z M 8.199219 1.199219 C 8.199219 0.980469 8.378906 0.800781 8.601562 0.800781 L 9 0.800781 L 9 1.601562 L 8.601562 1.601562 C 8.378906 1.601562 8.199219 1.421875 8.199219 1.199219 Z M 9.800781 2.398438 L 12.199219 2.398438 L 12.199219 4.800781 L 9.800781 4.800781 Z M 7.800781 22.925781 C 7.800781 23.078125 7.675781 23.199219 7.527344 23.199219 L 5.273438 23.199219 C 5.121094 23.199219 5 23.078125 5 22.925781 L 5 22.800781 L 7.800781 22.800781 Z M 16.601562 22.925781 C 16.601562 23.078125 16.476562 23.199219 16.324219 23.199219 L 14.074219 23.199219 C 13.921875 23.199219 13.800781 23.078125 13.800781 22.925781 L 13.800781 22.800781 L 16.601562 22.800781 C 16.601562 22.800781 16.601562 22.925781 16.601562 22.925781 Z M 17.800781 20.855469 C 17.800781 21.488281 17.285156 22 16.65625 22 L 4.941406 22 C 4.3125 22 3.800781 21.488281 3.800781 20.855469 L 3.800781 6.742188 C 3.800781 6.113281 4.3125 5.601562 4.941406 5.601562 L 16.65625 5.601562 C 17.285156 5.601562 17.800781 6.113281 17.800781 6.742188 Z M 19 14.800781 L 18.601562 14.800781 L 18.601562 12.398438 L 19 12.398438 C 19.660156 12.398438 20.199219 12.9375 20.199219 13.601562 C 20.199219 14.261719 19.660156 14.800781 19 14.800781 Z M 19 14.800781"/>
</svg>

<svg xmlns="http://www.w3.org/2000/svg" width="32" height="32" viewBox="0 0 24 24">
    <path d="M11.375 18.852l4.094 1.726 1.254-2.976-4.09-1.727zm4.3-.825l-.632 1.5-2.617-1.105.633-1.5zm0 0M13.398 8.8c0 .895.528 1.598 1.204 1.598.671 0 1.199-.703 1.199-1.597 0-.297-.063-.567-.164-.801h.164a.4.4 0 0 0 0-.8h-10a.401.401 0 0 0 0 .8h7.761a2.006 2.006 0 0 0-.164.8zM15 8.8c0 .49-.238.802-.398.802-.165 0-.403-.313-.403-.801 0-.489.239-.801.403-.801.16 0 .398.313.398.8zm0 0"/>
    <path d="M19 11.602h-.398v-4.86c0-1.07-.875-1.941-1.946-1.941H13V2.398h.398A1.2 1.2 0 0 0 14.602 1.2c0-.66-.54-1.199-1.204-1.199H8.602a1.2 1.2 0 0 0 0 2.398H9v2.403H4.941C3.871 4.8 3 5.67 3 6.742v14.113c0 .81.496 1.504 1.2 1.797v.274C4.2 23.52 4.683 24 5.272 24h2.254c.59 0 1.075-.48 1.075-1.074V22.8H13v.125c0 .594.48 1.074 1.074 1.074h2.25c.594 0 1.074-.48 1.074-1.074v-.274a1.952 1.952 0 0 0 1.204-1.797v-5.253H19c1.102 0 2-.899 2-2 0-1.106-.898-2-2-2zm-9.2-10V.8h.802v.8zM11.399.8h.801v.8h-.8zm2.403.398c0 .223-.18.403-.403.403H13V.8h.398c.223 0 .403.18.403.398zm-5.602 0c0-.219.18-.398.403-.398H9v.8h-.398a.402.402 0 0 1-.403-.402zm1.602 1.2h2.398V4.8H9.801zm-2 20.527a.274.274 0 0 1-.274.273H5.273A.272.272 0 0 1 5 22.926V22.8h2.8zm8.8 0a.275.275 0 0 1-.277.273h-2.25a.272.272 0 0 1-.273-.273V22.8h2.8v.125zm1.2-2.07c0 .632-.516 1.144-1.145 1.144H4.941c-.628 0-1.14-.512-1.14-1.145V6.742c0-.629.511-1.14 1.14-1.14h11.715c.63 0 1.145.511 1.145 1.14zM19 14.8h-.398v-2.403H19a1.202 1.202 0 0 1 0 2.402zm0 0"/>
</svg>
